src/resources/warning/W064.svg

<svg height="600pt" viewBox="0 0 685 600" width="685pt" xmlns="http://www.w3.org/2000/svg"><g fill-rule="evenodd"><path d="m197.46208 164.743687-93.34281-161.800625-.574744-.863479-.718431-.648739-.793102-.574146-.933394-.43287-.934526-.285943-1.006934-.0734631-1.008066.0734631-1.00354.285943-.863248.43287-.863249.574146-.649416.648739-.573613.863479-93.343941 161.800625-.429927.933553-.288504.938072-.0701459 1.007016.0701459 1.004755.288504 1.007016.429927.863479.574744.863479.648285.64874.863248.574146.863248.429479 1.008066.289333 1.00354.070073h186.687883l1.00354-.070073.936789-.289333.934525-.429479.793102-.574146.718431-.64874.573613-.863479.429927-.863479.289635-1.007016.070146-1.004755-.070146-1.007016-.289635-.938072zm0 0" fill="#2b2b2c" stroke="#2b2b2c" stroke-miterlimit="2.613" stroke-width=".127844" transform="scale(3.452621 3.456221)"/><path d="m99.158139 18.114979 82.698722 143.394052h-165.398576zm0 0" fill="#f9a900" stroke="#000303" stroke-miterlimit="2.613" stroke-width=".127844" transform="scale(3.452621 3.456221)"/><path d="m273.085938 321.839844c6.445312 0 43.941406 4.722656 50.144531 5.722656 7.699219 1.242188 19.621093 6.710938 33.769531 20.875 14.148438 14.160156 26.070312 10.433594 35.511719 10.433594 9.425781 0 45.679687-2.484375 65.289062 6.96875 19.867188 9.191406 35.753907 17.644531 35.753907 17.644531l-13.40625 41.757813s-22.089844-9.207032-33.015626-11.933594c-21.605468-5.210938-28.308593 2.726562-48.671874 5.464844-25.074219 3.484374-58.34375-5.964844-72.25-12.417969-12.164063-5.726563-53.382813-19.644531-53.382813-19.644531zm0 0" fill="#2b2b2c"/><path d="m233.597656 516.953125h-19.367187v-173.984375h19.367187zm0 0" fill="#2b2b2c"/><path d="m243.292969 360.871094h-15.402344v-12.933594h15.402344zm0 0" fill="#2b2b2c"/><path d="m275.808594 325.320312-41.957032 30.824219zm0 0" fill="#2b2b2c"/></g><path d="m79.883832 94.12601-12.152226 8.918474" fill="none" stroke="#2b2b2c" stroke-miterlimit="2.613" stroke-width="2.83056" transform="scale(3.452621 3.456221)"/><path d="m275.3125 383.242188-41.703125-30.824219zm0 0" fill="#2b2b2c" fill-rule="evenodd"/><path d="m79.740146 110.88474-12.078686-8.918474" fill="none" stroke="#2b2b2c" stroke-miterlimit="2.613" stroke-width="2.83056" transform="scale(3.452621 3.456221)"/></svg>

<?xml version="1.0" encoding="UTF-8" standalone="no"?>
<svg
   height="599.43457pt"
   viewBox="0 0 684.70807 599.43457"
   width="684.70807pt"
   version="1.1"
   id="svg9"
   xmlns="http://www.w3.org/2000/svg"
   xmlns:svg="http://www.w3.org/2000/svg">
  <defs
     id="defs9" />
  <g
     fill-rule="evenodd"
     id="g6"
     transform="translate(-0.00142199,-0.00114122)">
    <path
       d="M 197.46208,164.74369 104.11927,2.943062 103.54453,2.079583 102.82609,1.430844 102.03299,0.856698 101.0996,0.423828 100.16507,0.137885 99.158139,0.0644219 98.150073,0.137885 97.146533,0.423828 96.283285,0.856698 95.420036,1.430844 94.77062,2.079583 94.197007,2.943062 0.853066,164.74369 l -0.429927,0.93355 -0.288504,0.93807 -0.0701459,1.00702 0.0701459,1.00475 0.288504,1.00702 0.429927,0.86348 0.574744,0.86348 0.648285,0.64874 0.863248,0.57414 0.863248,0.42948 1.008066,0.28933 1.00354,0.0701 H 192.50208 l 1.00354,-0.0701 0.93679,-0.28933 0.93452,-0.42948 0.79311,-0.57414 0.71843,-0.64874 0.57361,-0.86348 0.42993,-0.86348 0.28963,-1.00702 0.0702,-1.00475 -0.0702,-1.00702 -0.28963,-0.93807 z m 0,0"
       fill="#2b2b2c"
       stroke="#2b2b2c"
       stroke-miterlimit="2.613"
       stroke-width="0.127844"
       transform="scale(3.452621,3.456221)"
       id="path1"
       style="fill:#2b2b2c;fill-opacity:1" />
    <path
       d="M 99.158139,18.114979 181.85686,161.50903 H 16.458285 Z m 0,0"
       fill="#f9a900"
       stroke="#2b2b2c"
       stroke-miterlimit="2.613"
       stroke-width="0.127844"
       transform="scale(3.452621,3.456221)"
       id="path2" />
    <path
       d="m 273.08594,321.83984 c 6.44531,0 43.9414,4.72266 50.14453,5.72266 7.69922,1.24219 19.62109,6.71094 33.76953,20.875 14.14844,14.16016 26.07031,10.43359 35.51172,10.43359 9.42578,0 45.67969,-2.48437 65.28906,6.96875 19.86719,9.19141 35.75391,17.64453 35.75391,17.64453 l -13.40625,41.75782 c 0,0 -22.08985,-9.20703 -33.01563,-11.9336 -21.60547,-5.21093 -28.30859,2.72657 -48.67187,5.46485 -25.07422,3.48437 -58.34375,-5.96485 -72.25,-12.41797 -12.16407,-5.72656 -53.38282,-19.64453 -53.38282,-19.64453 z m 0,0"
       fill="#2b2b2c"
       id="path3"
       style="fill:#2b2b2c;fill-opacity:1" />
    <path
       d="M 233.59766,516.95312 H 214.23047 V 342.96875 h 19.36719 z m 0,0"
       fill="#2b2b2c"
       id="path4"
       style="fill:#2b2b2c;fill-opacity:1" />
    <path
       d="M 243.29297,360.87109 H 227.89062 V 347.9375 h 15.40235 z m 0,0"
       fill="#2b2b2c"
       id="path5"
       style="fill:#2b2b2c;fill-opacity:1" />
    <path
       d="m 275.80859,325.32031 -41.95703,30.82422 z m 0,0"
       fill="#2b2b2c"
       id="path6"
       style="fill:#2b2b2c;fill-opacity:1" />
  </g>
  <path
     d="m 275.80717,325.31915 -41.95703,30.8242"
     fill="none"
     stroke="#2b2b2c"
     stroke-miterlimit="2.613"
     stroke-width="9.77794"
     id="path7" />
  <path
     d="m 275.31108,383.24105 -41.70313,-30.82422 z m 0,0"
     fill="#2b2b2c"
     fill-rule="evenodd"
     id="path8"
     style="fill:#2b2b2c;fill-opacity:1" />
  <path
     d="M 275.31108,383.24103 233.60796,352.41682"
     fill="none"
     stroke="#2b2b2c"
     stroke-miterlimit="2.613"
     stroke-width="9.77794"
     id="path9" />
</svg>
